X:1
T:Title
%%score { ( 1 3 5 ) | ( 2 4 6 ) }
L:1/8
Q:1/4=100
M:4/4
K:Bb
V:1 treble nm="Grand Piano"
V:3 treble 
V:5 treble 
V:2 bass 
V:4 bass 
V:6 bass 
V:1
 [DF]2 [B,D][CE] [DF]2 [DF][DF] | G2 GG G4 | [DF]2 [DF][DF] [FB]2 [EA][EB] | c2 cc c4 | %4
w: J.~H.~Tenney * * * * *||||
 [Fd]2 dc B2 FF | G2 GG G4 | A2 AA A2 GA | [DB]2 [DB][EB] [DB]4 | [GB]6 z2 | [DF]6 z2 | c6 z2 | %11
w: |||||||
 [Fd]6[K:bass] z2 | [GB]6 z2 | [DF]6 z d | c4 z4 | [DB]6 z2 |] %16
w: |||||
V:2
 [B,,B,]2 [B,,F,][B,,F,] [B,,B,]2 [B,,B,][B,,B,] | [E,B,E]2 [E,B,E][E,B,E] [E,B,E]4 | %2
 [B,,B,]2 [B,,B,][B,,B,] [D,B,]2 [C,F,][B,,F,] | [F,A,F]2 [F,A,F][F,A,F] [F,A,F]4 | %4
 [B,,B,]2 [F,A,F][F,A,E] [G,B,D]2 [D,B,][D,B,] | [E,B,E]2 [E,B,E][E,B,E] [E,B,E]4 | %6
 [F,E]2 [F,E][F,E] [F,CE]2 [F,CE][F,CE] | [B,,B,]2 [B,,G,][B,,G,] [B,,F,]4 | %8
 [E,B,]2 E,E, E,2[K:treble] FE | B,,2 B,,B,, B,,2 DF | E2- [F,E-][F,E-] [F,E]2 [F,B,D][F,A,E] | %11
 [B,,B,]2 B,,B,, B,,2 z2 | E,2 E,E, .E,2[K:treble] FE | z4 z2 z F | E2- [E,E-][E,E] F,2 F,F, | %15
 [B,,F,]6 z2 |] %16
V:3
 x8 | x8 | x8 | x8 | x8 | x8 | x8 | x8 | z2 B,B, B,2 AG | B,2 B,B, B,2 Bd | z2 A,A, A,2 Bc | %11
 z2[K:bass] B,B, B,2 z2 | B,2 B,B, .B,2 AG | B,2 B,B, B,2 .[DB]>B, | z2 G,G, [DB]2 [CA]2 | x8 |] %16
V:4
 x8 | x8 | x8 | x8 | x8 | x8 | x8 | x8 | x6[K:treble] x2 | x8 | [F,A,]2 z2 z4 | x8 | %12
 z4 z .E,3[K:treble] | z4 z2 [B,,B,]2 | [E,G,]2 z2 z4 | x8 |] %16
V:5
 x8 | x8 | x8 | x8 | x8 | x8 | x8 | x8 | x8 | x8 | x8 | x2[K:bass] x6 | z4 z .B,3 | x8 | x8 | x8 |] %16
V:6
 x8 | x8 | x8 | x8 | x8 | x8 | x8 | x8 | x6[K:treble] x2 | x8 | x8 | x8 | x6[K:treble] x2 | %13
 B,,2 B,,B,, B,,2 z z/ B,,/ | x8 | x8 |] %16

